X:6
T: Antigonish Polka, The
R: polka 48
M: 4/4
L: 1/8
K:Dmaj
|: FG |A2 f2 fedB | A2 AB AGFA | d2 cd b2 a2 | g3 a gfed |
c2 cd cBAc | d2 dc defg | a/b/a ^ga b2 c2 | d4- d2 :|
|: B2 |A/B/A ^GA Bcde | f4 fedB | A2 ^GA Bcde | f3 A fagf |
eagf edcB | Aagf edcB | A/B/A ^GA BAFA | d4- d2 :|

